**harm	**harte	**silbe	**rhyme	**timestamp	**phrase	**leadinstrument	**kern
*M4/4	*M4/4	*	*	*	*	*	*
*	*	*	*	*	*	*	*
*	*	*	*	*	*	*	*
*D-:	*D-:	*	*	*	*	*	*D-:
*	*	*	*	*	*	*	*
*	*	*	*	*	*	*	*
1r;	N	.	.	0	.	r	1r;
=1	=1	=1	=1	=1	=1	=1	=1
*>Letter>A	*>Letter>A	*>Letter>A	*>Letter>A	*>Letter>A	*>Letter>A	*>Letter>A	*>Letter>A
*>Label>Intro	*>Label>Intro	*>Label>Intro	*>Label>Intro	*>Label>Intro	*>Label>Intro	*>Label>Intro	*>Label>Intro
1I	D-:maj	.	.	0.372	newline	r	1D- 1f 1a-
=2	=2	=2	=2	=2	=2	=2	=2
1I	D-:maj	.	.	1.457	.	r	1D- 1f 1a-
=3	=3	=3	=3	=3	=3	=3	=3
1I	D-:maj	.	.	2.543	.	r	1D- 1f 1a-
=4	=4	=4	=4	=4	=4	=4	=4
2io	D-:dim	.	.	3.628	.	r	1D- 1f- 1a--
2V7f	A-:7/4	.	.	4.171	.	r	2A- 2cc 2ee- 2gg-
=5	=5	=5	=5	=5	=5	=5	=5
2.I	D-:maj	.	.	4.714	newline	r	1D- 1f 1a-
4V7	A-:7	.	.	5.515	.	r	4A- 4cc 4ee- 4gg-
=6	=6	=6	=6	=6	=6	=6	=6
1V7	A-:7	.	.	5.782	.	r	1A- 1cc 1ee- 1gg-
.	.	Well,	.	.	.	.	.
.	.	I	.	.	.	.	.
.	.	quit	.	.	.	.	.
.	.	my	.	.	.	.	.
.	.	job	.	.	.	.	.
=7	=7	=7	=7	=7	=7	=7	=7
*>Letter>B	*>Letter>B	*>Letter>B	*>Letter>B	*>Letter>B	*>Letter>B	*>Letter>B	*>Letter>B
*>Label>Verse	*>Label>Verse	*>Label>Verse	*>Label>Verse	*>Label>Verse	*>Label>Verse	*>Label>Verse	*>Label>Verse
1Im7	D-:7	_	.	6.85	newline	voice	1D- 1f 1a- 1cc
.	.	down	.	.	.	.	.
.	.	at	.	.	.	.	.
.	.	the	.	.	.	.	.
.	.	car	.	.	.	.	.
=8	=8	=8	=8	=8	=8	=8	=8
1Im7	D-:7	_	.	7.906	.	voice	1D- 1f 1a- 1cc
.	.	wash,	.	.	.	.	.
.	.	I	.	.	.	.	.
.	.	left	.	.	.	.	.
.	.	my	.	.	.	.	.
=9	=9	=9	=9	=9	=9	=9	=9
1Im7	D-:7	ma-	.	8.962	.	voice	1D- 1f 1a- 1cc
.	.	-ma	.	.	.	.	.
.	.	a	.	.	.	.	.
.	.	good-	.	.	.	.	.
.	.	-bye	.	.	.	.	.
.	.	note	A	.	.	.	.
=10	=10	=10	=10	=10	=10	=10	=10
1Im7	D-:7	_	.	10.018	.	voice	1D- 1f 1a- 1cc
.	.	.	.	.	.	.	.
.	.	.	.	.	.	.	.
.	.	By	.	.	.	.	.
=11	=11	=11	=11	=11	=11	=11	=11
1Im7	D-:7	sun-	.	11.074	newline	voice	1D- 1f 1a- 1cc
.	.	-down	.	.	.	.	.
.	.	I'd	.	.	.	.	.
.	.	l-	.	.	.	.	.
.	.	-left	.	.	.	.	.
=12	=12	=12	=12	=12	=12	=12	=12
1Im7	D-:7	King-	.	12.121	.	voice	1D- 1f 1a- 1cc
.	.	-ston,	.	.	.	.	.
.	.	a'-	.	.	.	.	.
.	.	-with	.	.	.	.	.
.	.	my	.	.	.	.	.
=13	=13	=13	=13	=13	=13	=13	=13
1Im7	D-:7	gui-	.	13.169	.	voice	1D- 1f 1a- 1cc
.	.	-tar	.	.	.	.	.
.	.	un-	.	.	.	.	.
.	.	-der	.	.	.	.	.
.	.	my	.	.	.	.	.
.	.	coat	A	.	.	.	.
=14	=14	=14	=14	=14	=14	=14	=14
1Im7	D-:7	.	.	14.217	.	voice	1D- 1f 1a- 1cc
.	.	.	.	.	.	.	.
.	.	I	.	.	.	.	.
.	.	hitch-	.	.	.	.	.
.	.	-hiked	.	.	.	.	.
.	.	all	.	.	.	.	.
=15	=15	=15	=15	=15	=15	=15	=15
1IVm7	G-:7	_	.	15.264	newline	voice	1G- 1b- 1dd- 1ff
.	.	the	.	.	.	.	.
.	.	way	.	.	.	.	.
.	.	_	.	.	.	.	.
.	.	down	.	.	.	.	.
.	.	_	.	.	.	.	.
.	.	to	.	.	.	.	.
.	.	Mem	.	.	.	.	.
=16	=16	=16	=16	=16	=16	=16	=16
1IVm7	G-:7	_	.	16.303	.	voice	1G- 1b- 1dd- 1ff
.	.	phis,	.	.	.	.	.
.	.	got	.	.	.	.	.
.	.	a	.	.	.	.	.
.	.	room	.	.	.	.	.
.	.	at	.	.	.	.	.
.	.	the	.	.	.	.	.
=17	=17	=17	=17	=17	=17	=17	=17
.	.	_	.	.	.	.	.
1IVm7	G-:7	Y-	.	17.342	.	voice	1G- 1b- 1dd- 1ff
.	.	_	.	.	.	.	.
.	.	-M-	.	.	.	.	.
.	.	_	.	.	.	.	.
.	.	-C-	.	.	.	.	.
.	.	-A	B	.	.	.	.
.	.	.	.	.	.	.	.
=18	=18	=18	=18	=18	=18	=18	=18
1IVm7	G-:7	.	.	18.38	.	voice	1G- 1b- 1dd- 1ff
.	.	.	.	.	.	.	.
.	.	a'-	.	.	.	.	.
.	.	-for	.	.	.	.	.
.	.	the	.	.	.	.	.
=19	=19	=19	=19	=19	=19	=19	=19
1Im7	D-:7	next	.	19.419	newline	voice	1D- 1f 1a- 1cc
.	.	three	.	.	.	.	.
.	.	weeks	.	.	.	.	.
.	.	I	.	.	.	.	.
.	.	went	.	.	.	.	.
.	.	a'-	.	.	.	.	.
=20	=20	=20	=20	=20	=20	=20	=20
1Im7	D-:7	-hun-	.	20.453	.	voice	1D- 1f 1a- 1cc
.	.	-tin'	.	.	.	.	.
.	.	them	.	.	.	.	.
.	.	nights,	.	.	.	.	.
.	.	just	.	.	.	.	.
.	.	a'-	.	.	.	.	.
=21	=21	=21	=21	=21	=21	=21	=21
1Im7	D-:7	-loo-	.	21.487	.	voice	1D- 1f 1a- 1cc
.	.	-kin'	.	.	.	.	.
.	.	for	.	.	.	.	.
.	.	a	.	.	.	.	.
.	.	place	.	.	.	.	.
.	.	to	.	.	.	.	.
.	.	play	B	.	.	.	.
=22	=22	=22	=22	=22	=22	=22	=22
1Im7	D-:7	_	.	22.521	.	voice	1D- 1f 1a- 1cc
.	.	.	.	.	.	.	.
.	.	.	.	.	.	.	.
.	.	Well,	.	.	.	.	.
.	.	I	.	.	.	.	.
=23	=23	=23	=23	=23	=23	=23	=23
1V7	A-:7	thought	.	23.555	newline	voice	1A- 1cc 1ee- 1gg-
.	.	my	.	.	.	.	.
.	.	pic-	.	.	.	.	.
.	.	-kin'	.	.	.	.	.
.	.	would	.	.	.	.	.
=24	=24	=24	=24	=24	=24	=24	=24
1V7	A-:7	set	.	24.539	.	voice	1A- 1cc 1ee- 1gg-
.	.	'em	.	.	.	.	.
.	.	on	.	.	.	.	.
.	.	_	.	.	.	.	.
.	.	_	.	.	.	.	.
.	.	fire,	C	.	.	.	.
.	.	_	.	.	.	.	.
.	.	but	.	.	.	.	.
=25	=25	=25	=25	=25	=25	=25	=25
1IVm7	G-:7	no-	.	25.524	.	voice	1G- 1b- 1dd- 1ff
.	.	-bo	.	.	.	.	.
.	.	_	.	.	.	.	.
.	.	dy	.	.	.	.	.
.	.	wan-	.	.	.	.	.
.	.	-ted	.	.	.	.	.
.	.	to	.	.	.	.	.
.	.	hi-	(C	.	.	.	.
=26	=26	=26	=26	=26	=26	=26	=26
1IVm7	G-:7	-re	c)	26.508	.	voice	1G- 1b- 1dd- 1ff
.	.	a	.	.	.	.	.
.	.	gui-	.	.	.	.	.
.	.	-tar	.	.	.	.	.
.	.	man	.	.	.	.	.
=27	=27	=27	=27	=27	=27	=27	=27
1I	D-:maj	_	.	27.492	newline	voice	1D- 1f 1a-
.	.	.	.	.	.	.	.
=28	=28	=28	=28	=28	=28	=28	=28
2io	D-:dim	.	.	28.523	.	voice	1D- 1f- 1a--
2V7f	A-:7/4	.	.	29.038	.	voice	2A- 2cc 2ee- 2gg-
=29	=29	=29	=29	=29	=29	=29	=29
2.I	D-:maj	.	.	29.553	.	voice	1D- 1f 1a-
4V7	A-:7	.	.	30.326	.	voice	4A- 4cc 4ee- 4gg-
=30	=30	=30	=30	=30	=30	=30	=30
1V7	A-:7	.	.	30.584	.	voice	1A- 1cc 1ee- 1gg-
.	.	Well,	.	.	.	.	.
.	.	I	.	.	.	.	.
.	.	near-	.	.	.	.	.
.	.	-ly	.	.	.	.	.
.	.	'bout	.	.	.	.	.
=31	=31	=31	=31	=31	=31	=31	=31
*>Letter>B	*>Letter>B	*>Letter>B	*>Letter>B	*>Letter>B	*>Letter>B	*>Letter>B	*>Letter>B
*>Label>Verse	*>Label>Verse	*>Label>Verse	*>Label>Verse	*>Label>Verse	*>Label>Verse	*>Label>Verse	*>Label>Verse
1Im7	D-:7	starved	.	31.614	newline	voice	1D- 1f 1a- 1cc
.	.	to	.	.	.	.	.
.	.	death	.	.	.	.	.
.	.	_	.	.	.	.	.
.	.	down	.	.	.	.	.
.	.	in	.	.	.	.	.
=32	=32	=32	=32	=32	=32	=32	=32
1Im7	D-:7	Mem-	.	32.644	.	voice	1D- 1f 1a- 1cc
.	.	-phis	.	.	.	.	.
.	.	.	.	.	.	.	.
.	.	.	.	.	.	.	.
.	.	.	.	.	.	.	.
.	.	I	.	.	.	.	.
=33	=33	=33	=33	=33	=33	=33	=33
1Im7	D-:7	run	.	33.673	.	voice	1D- 1f 1a- 1cc
.	.	out-	.	.	.	.	.
.	.	-ta	.	.	.	.	.
.	.	mo-	.	.	.	.	.
.	.	-ney	.	.	.	.	.
.	.	and	.	.	.	.	.
.	.	_	.	.	.	.	.
.	.	luck	D	.	.	.	.
=34	=34	=34	=34	=34	=34	=34	=34
1Im7	D-:7	.	.	34.703	.	voice	1D- 1f 1a- 1cc
.	.	.	.	.	.	.	.
.	.	so	.	.	.	.	.
.	.	I	.	.	.	.	.
.	.	bought	.	.	.	.	.
=35	=35	=35	=35	=35	=35	=35	=35
1Im7	D-:7	_	.	35.732	newline	voice	1D- 1f 1a- 1cc
.	.	me	.	.	.	.	.
.	.	a	.	.	.	.	.
.	.	ride	.	.	.	.	.
.	.	down	.	.	.	.	.
.	.	to	.	.	.	.	.
=36	=36	=36	=36	=36	=36	=36	=36
1Im7	D-:7	Ma-	.	36.762	.	voice	1D- 1f 1a- 1cc
.	.	-con,	.	.	.	.	.
.	.	Geor	.	.	.	.	.
.	.	_	.	.	.	.	.
.	.	gia	.	.	.	.	.
.	.	on	.	.	.	.	.
.	.	an	.	.	.	.	.
=37	=37	=37	=37	=37	=37	=37	=37
1Im7	D-:7	o-	.	37.791	.	voice	1D- 1f 1a- 1cc
.	.	-ver-	.	.	.	.	.
.	.	-loa-	.	.	.	.	.
.	.	-ded	.	.	.	.	.
.	.	poul-	.	.	.	.	.
.	.	-try	.	.	.	.	.
.	.	truck	D	.	.	.	.
=38	=38	=38	=38	=38	=38	=38	=38
1Im7	D-:7	.	.	38.82	.	voice	1D- 1f 1a- 1cc
.	.	.	.	.	.	.	.
.	.	I	.	.	.	.	.
.	.	thumbed	.	.	.	.	.
.	.	on	.	.	.	.	.
=39	=39	=39	=39	=39	=39	=39	=39
1IVm7	G-:7	down	.	39.849	newline	voice	1G- 1b- 1dd- 1ff
.	.	to	.	.	.	.	.
.	.	Pa-	.	.	.	.	.
.	.	-na-	.	.	.	.	.
.	.	-ma	.	.	.	.	.
=40	=40	=40	=40	=40	=40	=40	=40
1IVm7	G-:7	Ci-	.	40.932	.	voice	1G- 1b- 1dd- 1ff
.	.	-ty,	.	.	.	.	.
.	.	star-	.	.	.	.	.
.	.	-ted	.	.	.	.	.
.	.	pic-	.	.	.	.	.
.	.	-kin'	.	.	.	.	.
.	.	out	.	.	.	.	.
=41	=41	=41	=41	=41	=41	=41	=41
1IVm7	G-:7	some	.	42.014	.	voice	1G- 1b- 1dd- 1ff
.	.	of	.	.	.	.	.
.	.	them	.	.	.	.	.
.	.	all	.	.	.	.	.
.	.	_	.	.	.	.	.
.	.	night	.	.	.	.	.
.	.	bars	E	.	.	.	.
=42	=42	=42	=42	=42	=42	=42	=42
1IVm7	G-:7	_	.	43.096	.	voice	1G- 1b- 1dd- 1ff
.	.	.	.	.	.	.	.
.	.	.	.	.	.	.	.
.	.	A'-	.	.	.	.	.
=43	=43	=43	=43	=43	=43	=43	=43
1Im7	D-:7	-ho-	.	44.178	newline	voice	1D- 1f 1a- 1cc
.	.	-pin'	.	.	.	.	.
.	.	I	.	.	.	.	.
.	.	could	.	.	.	.	.
.	.	make	.	.	.	.	.
.	.	my-	.	.	.	.	.
=44	=44	=44	=44	=44	=44	=44	=44
1Im7	D-:7	-self	.	45.197	.	voice	1D- 1f 1a- 1cc
.	.	a	.	.	.	.	.
.	.	dol	.	.	.	.	.
.	.	_	.	.	.	.	.
.	.	lar	.	.	.	.	.
.	.	ma-	.	.	.	.	.
.	.	-kin'	.	.	.	.	.
=45	=45	=45	=45	=45	=45	=45	=45
1Im7	D-:7	mu-	.	46.216	.	voice	1D- 1f 1a- 1cc
.	.	-sic	.	.	.	.	.
.	.	on	.	.	.	.	.
.	.	my	.	.	.	.	.
.	.	gui-	.	.	.	.	.
.	.	-tar	E	.	.	.	.
=46	=46	=46	=46	=46	=46	=46	=46
1Im7	D-:7	_	.	47.235	.	voice	1D- 1f 1a- 1cc
.	.	.	.	.	.	.	.
.	.	.	.	.	.	.	.
.	.	.	.	.	.	.	.
.	.	I	.	.	.	.	.
.	.	got	.	.	.	.	.
.	.	the	.	.	.	.	.
=47	=47	=47	=47	=47	=47	=47	=47
.	.	_	.	.	.	.	.
1V7	A-:7	same	.	48.253	newline	voice	1A- 1cc 1ee- 1gg-
.	.	_	.	.	.	.	.
.	.	old	.	.	.	.	.
.	.	sto-	.	.	.	.	.
.	.	-ry	.	.	.	.	.
.	.	at	.	.	.	.	.
.	.	them	.	.	.	.	.
.	.	_	.	.	.	.	.
.	.	all	.	.	.	.	.
=48	=48	=48	=48	=48	=48	=48	=48
1V7	A-:7	_	.	49.27	.	voice	1A- 1cc 1ee- 1gg-
.	.	_	.	.	.	.	.
.	.	night	.	.	.	.	.
.	.	_	.	.	.	.	.
.	.	piers	F	.	.	.	.
.	.	_	.	.	.	.	.
.	.	.	.	.	.	.	.
.	.	there	.	.	.	.	.
=49	=49	=49	=49	=49	=49	=49	=49
1IVm7	G-:7	ain't	.	50.288	.	voice	1G- 1b- 1dd- 1ff
.	.	no	.	.	.	.	.
.	.	room	.	.	.	.	.
.	.	a-	.	.	.	.	.
.	.	-round	.	.	.	.	.
=50	=50	=50	=50	=50	=50	=50	=50
1IVm7	G-:7	here	F	51.305	.	voice	1G- 1b- 1dd- 1ff
.	.	for	.	.	.	.	.
.	.	a	.	.	.	.	.
.	.	gui-	.	.	.	.	.
.	.	-tar	.	.	.	.	.
.	.	man	.	.	.	.	.
=51	=51	=51	=51	=51	=51	=51	=51
1I	D-:maj	_	.	52.322	newline	voice	1D- 1f 1a-
.	.	We	.	.	.	.	.
.	.	don't	.	.	.	.	.
.	.	need	.	.	.	.	.
.	.	a	.	.	.	.	.
=52	=52	=52	=52	=52	=52	=52	=52
2io	D-:dim	gui-	.	53.356	.	voice	2D- 2f- 2a--
.	.	-tar	.	.	.	.	.
.	.	man,	.	.	.	.	.
2V7f	A-:7/4	_	.	53.874	.	voice	2A- 2cc 2ee- 2gg-
.	.	son!	.	.	.	.	.
.	.	_	.	.	.	.	.
=53	=53	=53	=53	=53	=53	=53	=53
1Im7	D-:7	.	.	54.391	.	voice	1D- 1f 1a- 1cc
=54	=54	=54	=54	=54	=54	=54	=54
1Im7	D-:7	.	.	55.425	.	voice	1D- 1f 1a- 1cc
.	.	.	.	.	.	.	.
.	.	So	.	.	.	.	.
.	.	I	.	.	.	.	.
=55	=55	=55	=55	=55	=55	=55	=55
*>Letter>C	*>Letter>C	*>Letter>C	*>Letter>C	*>Letter>C	*>Letter>C	*>Letter>C	*>Letter>C
*>Label>Bridge	*>Label>Bridge	*>Label>Bridge	*>Label>Bridge	*>Label>Bridge	*>Label>Bridge	*>Label>Bridge	*>Label>Bridge
1IVm7	G-:7	slept	.	56.46	newline	voice	1G- 1b- 1dd- 1ff
.	.	in	.	.	.	.	.
.	.	the	.	.	.	.	.
.	.	ho-	.	.	.	.	.
.	.	-bo	.	.	.	.	.
.	.	_	.	.	.	.	.
.	.	jun	.	.	.	.	.
=56	=56	=56	=56	=56	=56	=56	=56
1IVm7	G-:7	_	.	57.469	.	voice	1G- 1b- 1dd- 1ff
.	.	gles	.	.	.	.	.
.	.	.	.	.	.	.	.
.	.	.	.	.	.	.	.
.	.	I	.	.	.	.	.
.	.	roamed	.	.	.	.	.
.	.	a	.	.	.	.	.
=57	=57	=57	=57	=57	=57	=57	=57
1IVm7	G-:7	thou-	.	58.477	.	voice	1G- 1b- 1dd- 1ff
.	.	-sand	.	.	.	.	.
.	.	miles	.	.	.	.	.
.	.	_	.	.	.	.	.
.	.	_	.	.	.	.	.
.	.	of	.	.	.	.	.
.	.	track	G	.	.	.	.
=58	=58	=58	=58	=58	=58	=58	=58
1IVm7	G-:7	.	.	59.486	.	voice	1G- 1b- 1dd- 1ff
.	.	.	.	.	.	.	.
.	.	'Till	.	.	.	.	.
.	.	I	.	.	.	.	.
=59	=59	=59	=59	=59	=59	=59	=59
1Im7	D-:7	found	.	60.495	newline	voice	1D- 1f 1a- 1cc
.	.	my-	.	.	.	.	.
.	.	-self	.	.	.	.	.
.	.	in	.	.	.	.	.
.	.	Mo-	.	.	.	.	.
=60	=60	=60	=60	=60	=60	=60	=60
1Im7	D-:7	-bi-	.	61.522	.	voice	1D- 1f 1a- 1cc
.	.	-le	.	.	.	.	.
.	.	A-	.	.	.	.	.
.	.	-la-	.	.	.	.	.
.	.	-ba-	.	.	.	.	.
.	.	-ma	.	.	.	.	.
.	.	at	.	.	.	.	.
.	.	a	.	.	.	.	.
=61	=61	=61	=61	=61	=61	=61	=61
1Im7	D-:7	club	.	62.548	.	voice	1D- 1f 1a- 1cc
.	.	they	.	.	.	.	.
.	.	call	.	.	.	.	.
.	.	Big	.	.	.	.	.
=62	=62	=62	=62	=62	=62	=62	=62
1Im7	D-:7	Jack's	G	63.575	.	voice	1D- 1f 1a- 1cc
.	.	.	.	.	.	.	.
.	.	.	.	.	.	.	.
.	.	A	.	.	.	.	.
.	.	lil'	.	.	.	.	.
=63	=63	=63	=63	=63	=63	=63	=63
1IVm7	G-:7	four-	.	64.601	newline	voice	1G- 1b- 1dd- 1ff
.	.	-piece	.	.	.	.	.
.	.	band	.	.	.	.	.
.	.	was	.	.	.	.	.
.	.	jam-	.	.	.	.	.
=64	=64	=64	=64	=64	=64	=64	=64
1IVm7	G-:7	-ming,	.	65.628	.	voice	1G- 1b- 1dd- 1ff
.	.	so	.	.	.	.	.
.	.	I	.	.	.	.	.
.	.	took	.	.	.	.	.
.	.	my	.	.	.	.	.
.	.	gui	.	.	.	.	.
=65	=65	=65	=65	=65	=65	=65	=65
1IVm7	G-:7	_	.	66.655	.	voice	1G- 1b- 1dd- 1ff
.	.	tar	.	.	.	.	.
.	.	and	.	.	.	.	.
.	.	I	.	.	.	.	.
.	.	sat	.	.	.	.	.
.	.	in	H	.	.	.	.
=66	=66	=66	=66	=66	=66	=66	=66
1IVm7	G-:7	_	.	67.681	.	voice	1G- 1b- 1dd- 1ff
.	.	_	.	.	.	.	.
.	.	.	.	.	.	.	.
.	.	.	.	.	.	.	.
.	.	.	.	.	.	.	.
.	.	I	.	.	.	.	.
=67	=67	=67	=67	=67	=67	=67	=67
1II7	E-:7	showed	.	68.708	newline	voice	1E- 1g 1b- 1dd-
.	.	'em	.	.	.	.	.
.	.	what	.	.	.	.	.
.	.	a	.	.	.	.	.
.	.	band	.	.	.	.	.
.	.	would	.	.	.	.	.
.	.	sound	.	.	.	.	.
=68	=68	=68	=68	=68	=68	=68	=68
1II7	E-:7	_	.	69.724	.	voice	1E- 1g 1b- 1dd-
.	.	like	.	.	.	.	.
.	.	.	.	.	.	.	.
.	.	.	.	.	.	.	.
.	.	a'	.	.	.	.	.
.	.	with	.	.	.	.	.
.	.	a	.	.	.	.	.
=69	=69	=69	=69	=69	=69	=69	=69
.	.	_	.	.	.	.	.
1V7	A-:7	swin-	.	70.74	.	voice	1A- 1cc 1ee- 1gg-
.	.	-gin'	.	.	.	.	.
.	.	lit-	.	.	.	.	.
.	.	-tle	.	.	.	.	.
.	.	gui-	.	.	.	.	.
.	.	-tar	.	.	.	.	.
.	.	man!	H	.	.	.	.
=70	=70	=70	=70	=70	=70	=70	=70
1V7	A-:7	_	.	71.756	.	voice	1A- 1cc 1ee- 1gg-
.	.	Show	.	.	.	.	.
.	.	'em,	.	.	.	.	.
.	.	_	.	.	.	.	.
.	.	son!	.	.	.	.	.
=71	=71	=71	=71	=71	=71	=71	=71
*>Letter>B2	*>Letter>B2	*>Letter>B2	*>Letter>B2	*>Letter>B2	*>Letter>B2	*>Letter>B2	*>Letter>B2
*>Label>Solo	*>Label>Solo	*>Label>Solo	*>Label>Solo	*>Label>Solo	*>Label>Solo	*>Label>Solo	*>Label>Solo
1Im7	D-:7	.	.	72.772	newline	guitar	1D- 1f 1a- 1cc
=72	=72	=72	=72	=72	=72	=72	=72
1Im7	D-:7	.	.	73.8	.	guitar	1D- 1f 1a- 1cc
=73	=73	=73	=73	=73	=73	=73	=73
1IVm7	G-:7	.	.	74.829	.	guitar	1G- 1b- 1dd- 1ff
=74	=74	=74	=74	=74	=74	=74	=74
1IVm7	G-:7	.	.	75.857	.	guitar	1G- 1b- 1dd- 1ff
=75	=75	=75	=75	=75	=75	=75	=75
1Im7	D-:7	.	.	76.885	newline	guitar	1D- 1f 1a- 1cc
=76	=76	=76	=76	=76	=76	=76	=76
1Im7	D-:7	.	.	77.923	.	guitar	1D- 1f 1a- 1cc
=77	=77	=77	=77	=77	=77	=77	=77
1Im7	D-:7	.	.	78.961	.	guitar	1D- 1f 1a- 1cc
=78	=78	=78	=78	=78	=78	=78	=78
1Im7	D-:7	.	.	79.999	.	guitar	1D- 1f 1a- 1cc
=79	=79	=79	=79	=79	=79	=79	=79
1Im7	D-:7	.	.	81.037	newline	guitar	1D- 1f 1a- 1cc
=80	=80	=80	=80	=80	=80	=80	=80
1Im7	D-:7	.	.	82.068	.	guitar	1D- 1f 1a- 1cc
=81	=81	=81	=81	=81	=81	=81	=81
1Im7	D-:7	.	.	83.099	.	guitar	1D- 1f 1a- 1cc
=82	=82	=82	=82	=82	=82	=82	=82
1Im7	D-:7	.	.	84.129	.	guitar	1D- 1f 1a- 1cc
=83	=83	=83	=83	=83	=83	=83	=83
1IVm7	G-:7	.	.	85.16	newline	guitar	1G- 1b- 1dd- 1ff
=84	=84	=84	=84	=84	=84	=84	=84
1IVm7	G-:7	.	.	86.166	.	guitar	1G- 1b- 1dd- 1ff
=85	=85	=85	=85	=85	=85	=85	=85
1Im7	D-:7	.	.	87.171	.	guitar	1D- 1f 1a- 1cc
=86	=86	=86	=86	=86	=86	=86	=86
1Im7	D-:7	.	.	88.177	.	guitar	1D- 1f 1a- 1cc
=87	=87	=87	=87	=87	=87	=87	=87
1V7	A-:7	.	.	89.183	newline	guitar	1A- 1cc 1ee- 1gg-
=88	=88	=88	=88	=88	=88	=88	=88
1IVm7	G-:7	.	.	90.216	.	guitar	1G- 1b- 1dd- 1ff
=89	=89	=89	=89	=89	=89	=89	=89
1Im7	D-:7	.	.	91.25	.	guitar	1D- 1f 1a- 1cc
=90	=90	=90	=90	=90	=90	=90	=90
1Im7	D-:7	.	.	92.283	.	guitar	1D- 1f 1a- 1cc
=91	=91	=91	=91	=91	=91	=91	=91
2.I	D-:maj	.	.	93.316	newline	guitar	1D- 1f 1a-
4V7	A-:7	.	.	94.044	.	guitar	4A- 4cc 4ee- 4gg-
=92	=92	=92	=92	=92	=92	=92	=92
1V7	A-:7	.	.	94.286	.	guitar	1A- 1cc 1ee- 1gg-
.	.	If	.	.	.	.	.
.	.	you	.	.	.	.	.
.	.	e-	.	.	.	.	.
.	.	-ver	.	.	.	.	.
.	.	take	.	.	.	.	.
.	.	a	.	.	.	.	.
=93	=93	=93	=93	=93	=93	=93	=93
*>Letter>B	*>Letter>B	*>Letter>B	*>Letter>B	*>Letter>B	*>Letter>B	*>Letter>B	*>Letter>B
*>Label>Verse	*>Label>Verse	*>Label>Verse	*>Label>Verse	*>Label>Verse	*>Label>Verse	*>Label>Verse	*>Label>Verse
1Im7	D-:7	trip	.	95.256	newline	guitar	1D- 1f 1a- 1cc
.	.	down	.	.	.	.	.
.	.	to	.	.	.	.	.
.	.	the	.	.	.	.	.
.	.	o	.	.	.	.	.
=94	=94	=94	=94	=94	=94	=94	=94
1Im7	D-:7	_	.	96.307	.	guitar	1D- 1f 1a- 1cc
.	.	cean	.	.	.	.	.
.	.	.	.	.	.	.	.
.	.	find	.	.	.	.	.
.	.	_	.	.	.	.	.
.	.	your-	.	.	.	.	.
.	.	-self	.	.	.	.	.
=95	=95	=95	=95	=95	=95	=95	=95
1Im7	D-:7	.	.	97.358	.	guitar	1D- 1f 1a- 1cc
.	.	down	.	.	.	.	.
.	.	a-	.	.	.	.	.
.	.	-round	.	.	.	.	.
.	.	Mo-	.	.	.	.	.
=96	=96	=96	=96	=96	=96	=96	=96
1Im7	D-:7	-bile	I	98.409	.	guitar	1D- 1f 1a- 1cc
.	.	.	.	.	.	.	.
.	.	.	.	.	.	.	.
=97	=97	=97	=97	=97	=97	=97	=97
1Im7	D-:7	make	.	99.46	newline	guitar	1D- 1f 1a- 1cc
.	.	it	.	.	.	.	.
.	.	on	.	.	.	.	.
.	.	out	.	.	.	.	.
.	.	_	.	.	.	.	.
.	.	to	.	.	.	.	.
.	.	a	.	.	.	.	.
.	.	club	.	.	.	.	.
=98	=98	=98	=98	=98	=98	=98	=98
1Im7	D-:7	_	.	100.461	.	guitar	1D- 1f 1a- 1cc
.	.	called	.	.	.	.	.
.	.	Jack's	.	.	.	.	.
.	.	.	.	.	.	.	.
.	.	you	.	.	.	.	.
=99	=99	=99	=99	=99	=99	=99	=99
1Im7	D-:7	got-	.	101.461	.	guitar	1D- 1f 1a- 1cc
.	.	-ta	.	.	.	.	.
.	.	lit-	.	.	.	.	.
.	.	-tle	.	.	.	.	.
.	.	time	.	.	.	.	.
.	.	to	.	.	.	.	.
.	.	kill	I	.	.	.	.
=100	=100	=100	=100	=100	=100	=100	=100
1Im7	D-:7	_	.	102.462	.	guitar	1D- 1f 1a- 1cc
.	.	.	.	.	.	.	.
.	.	.	.	.	.	.	.
.	.	A'-	.	.	.	.	.
.	.	-just	.	.	.	.	.
=101	=101	=101	=101	=101	=101	=101	=101
1IVm7	G-:7	fol-	.	103.463	newline	guitar	1G- 1b- 1dd- 1ff
.	.	-low	.	.	.	.	.
.	.	that	.	.	.	.	.
.	.	crowd	.	.	.	.	.
.	.	of	.	.	.	.	.
.	.	peo	.	.	.	.	.
=102	=102	=102	=102	=102	=102	=102	=102
1IVm7	G-:7	_	.	104.522	.	guitar	1G- 1b- 1dd- 1ff
.	.	ple,	.	.	.	.	.
.	.	you'll	.	.	.	.	.
.	.	wind	.	.	.	.	.
.	.	up	.	.	.	.	.
=103	=103	=103	=103	=103	=103	=103	=103
1IVm7	G-:7	out	.	105.581	.	guitar	1G- 1b- 1dd- 1ff
.	.	on	.	.	.	.	.
.	.	his	.	.	.	.	.
.	.	dance	.	.	.	.	.
=104	=104	=104	=104	=104	=104	=104	=104
1IVm7	G-:7	floor	J	106.64	.	guitar	1G- 1b- 1dd- 1ff
.	.	.	.	.	.	.	.
.	.	.	.	.	.	.	.
.	.	.	.	.	.	.	.
.	.	a'	.	.	.	.	.
=105	=105	=105	=105	=105	=105	=105	=105
1Im7	D-:7	dig-	.	107.699	newline	guitar	1D- 1f 1a- 1cc
.	.	-gin	.	.	.	.	.
.	.	the	.	.	.	.	.
.	.	fi	.	.	.	.	.
.	.	_	.	.	.	.	.
.	.	nest	.	.	.	.	.
.	.	lit-	.	.	.	.	.
.	.	-tle	.	.	.	.	.
=106	=106	=106	=106	=106	=106	=106	=106
.	.	_	.	.	.	.	.
1Im7	D-:7	five	.	108.727	.	guitar	1D- 1f 1a- 1cc
.	.	_	.	.	.	.	.
.	.	piece	.	.	.	.	.
.	.	_	.	.	.	.	.
.	.	group,	.	.	.	.	.
.	.	up	.	.	.	.	.
.	.	a	.	.	.	.	.
=107	=107	=107	=107	=107	=107	=107	=107
1Im7	D-:7	down	.	109.755	.	guitar	1D- 1f 1a- 1cc
.	.	the	.	.	.	.	.
.	.	Gulf	.	.	.	.	.
.	.	of	.	.	.	.	.
.	.	Me-	.	.	.	.	.
.	.	-xi-	.	.	.	.	.
.	.	-co	J	.	.	.	.
=108	=108	=108	=108	=108	=108	=108	=108
1Im7	D-:7	_	.	110.783	.	guitar	1D- 1f 1a- 1cc
.	.	.	.	.	.	.	.
.	.	.	.	.	.	.	.
.	.	.	.	.	.	.	.
.	.	A'	.	.	.	.	.
=109	=109	=109	=109	=109	=109	=109	=109
.	.	_	.	.	.	.	.
1V7	A-:7	guess	.	111.811	newline	voice	1A- 1cc 1ee- 1gg-
.	.	_	.	.	.	.	.
.	.	who's	.	.	.	.	.
.	.	lea-	.	.	.	.	.
.	.	-din'	.	.	.	.	.
.	.	that	.	.	.	.	.
=110	=110	=110	=110	=110	=110	=110	=110
.	.	_	.	.	.	.	.
1V7	A-:7	five	.	112.833	.	voice	1A- 1cc 1ee- 1gg-
.	.	_	.	.	.	.	.
.	.	piece	.	.	.	.	.
.	.	_	.	.	.	.	.
.	.	band,	H	.	.	.	.
.	.	well,	.	.	.	.	.
=111	=111	=111	=111	=111	=111	=111	=111
1IVm7	G-:7	would-	.	113.854	.	voice	1G- 1b- 1dd- 1ff
.	.	-n't	.	.	.	.	.
.	.	ya	.	.	.	.	.
.	.	know,	.	.	.	.	.
.	.	_	.	.	.	.	.
.	.	it's	.	.	.	.	.
.	.	that	.	.	.	.	.
=112	=112	=112	=112	=112	=112	=112	=112
1IVm7	G-:7	swin-	.	114.875	.	voice	1G- 1b- 1dd- 1ff
.	.	-gin'	.	.	.	.	.
.	.	lit-	.	.	.	.	.
.	.	-tle	.	.	.	.	.
.	.	gui-	.	.	.	.	.
.	.	-tar	.	.	.	.	.
=113	=113	=113	=113	=113	=113	=113	=113
*>Letter>B2	*>Letter>B2	*>Letter>B2	*>Letter>B2	*>Letter>B2	*>Letter>B2	*>Letter>B2	*>Letter>B2
*>Label>Solo	*>Label>Solo	*>Label>Solo	*>Label>Solo	*>Label>Solo	*>Label>Solo	*>Label>Solo	*>Label>Solo
1Im7	D-:7	man,	H	115.897	newline	guitar	1D- 1f 1a- 1cc
.	.	hey!	.	.	.	.	.
.	.	.	.	.	.	.	.
=114	=114	=114	=114	=114	=114	=114	=114
1Im7	D-:7	.	.	116.928	.	guitar	1D- 1f 1a- 1cc
.	.	Hey!	.	.	.	.	.
.	.	.	.	.	.	.	.
=115	=115	=115	=115	=115	=115	=115	=115
1IVm7	G-:7	.	.	117.959	.	guitar	1G- 1b- 1dd- 1ff
=116	=116	=116	=116	=116	=116	=116	=116
1IVm7	G-:7	.	.	118.99	.	guitar	1G- 1b- 1dd- 1ff
=117	=117	=117	=117	=117	=117	=117	=117
1Im7	D-:7	.	.	120.021	newline	guitar	1D- 1f 1a- 1cc
=118	=118	=118	=118	=118	=118	=118	=118
1Im7	D-:7	.	.	121.07	.	guitar	1D- 1f 1a- 1cc
=119	=119	=119	=119	=119	=119	=119	=119
1Im7	D-:7	.	.	122.12	.	guitar	1D- 1f 1a- 1cc
=120	=120	=120	=120	=120	=120	=120	=120
1Im7	D-:7	.	.	123.169	.	guitar	1D- 1f 1a- 1cc
.	.	Uh!	.	.	.	.	.
.	.	.	.	.	.	.	.
.	.	.	.	.	.	.	.
=121	=121	=121	=121	=121	=121	=121	=121
1Im7	D-:7	.	.	124.218	newline	guitar	1D- 1f 1a- 1cc
=122	=122	=122	=122	=122	=122	=122	=122
1Im7	D-:7	.	.	125.246	.	guitar	1D- 1f 1a- 1cc
=123	=123	=123	=123	=123	=123	=123	=123
1Im7	D-:7	.	.	126.273	.	guitar	1D- 1f 1a- 1cc
=124	=124	=124	=124	=124	=124	=124	=124
1Im7	D-:7	.	.	127.3	.	guitar	1D- 1f 1a- 1cc
.	.	.	.	.	.	.	.
.	.	Mm-	.	.	.	.	.
.	.	-hm	.	.	.	.	.
=125	=125	=125	=125	=125	=125	=125	=125
1IVm7	G-:7	_	.	128.328	newline	guitar	1G- 1b- 1dd- 1ff
.	.	.	.	.	.	.	.
.	.	.	.	.	.	.	.
=126	=126	=126	=126	=126	=126	=126	=126
1IVm7	G-:7	.	.	129.339	.	guitar	1G- 1b- 1dd- 1ff
.	.	.	.	.	.	.	.
.	.	Mm-	.	.	.	.	.
.	.	-hm	.	.	.	.	.
=127	=127	=127	=127	=127	=127	=127	=127
1Im7	D-:7	_	.	130.349	.	guitar	1D- 1f 1a- 1cc
.	.	.	.	.	.	.	.
.	.	.	.	.	.	.	.
=128	=128	=128	=128	=128	=128	=128	=128
1Im7	D-:7	.	.	131.36	.	guitar	1D- 1f 1a- 1cc
.	.	.	.	.	.	.	.
.	.	Mm-	.	.	.	.	.
.	.	-hm	.	.	.	.	.
=129	=129	=129	=129	=129	=129	=129	=129
1V7	A-:7	_	.	132.37	newline	guitar	1A- 1cc 1ee- 1gg-
.	.	mm-	.	.	.	.	.
.	.	-hm	.	.	.	.	.
.	.	_	.	.	.	.	.
.	.	.	.	.	.	.	.
=130	=130	=130	=130	=130	=130	=130	=130
1IVm7	G-:7	.	.	133.387	.	guitar	1G- 1b- 1dd- 1ff
.	.	.	.	.	.	.	.
.	.	Mm-	.	.	.	.	.
.	.	-hm	.	.	.	.	.
=131	=131	=131	=131	=131	=131	=131	=131
1Im7	D-:7	_	.	134.403	.	guitar	1D- 1f 1a- 1cc
.	.	.	.	.	.	.	.
.	.	.	.	.	.	.	.
=132	=132	=132	=132	=132	=132	=132	=132
1Im7	D-:7	.	.	135.419	.	guitar	1D- 1f 1a- 1cc
1r;	N	.	.	136.436	.	r	1r;
*-	*-	*-	*-	*-	*-	*-	*-
!!!BillboardChartDate: 1968/01/27
!!!BillboardPeak: 28
!!!BillboardWeeksOnChart: 20
!!!COC: Elvis Presley
!!!ENC: Nathaniel Condit-Schultz
!!!EST: Awating manual error checking and editing.
!!!OTL: Guitar Man
!!!RDF**harte: Chris Harte's syntax, used by MIREX
!!!RDF**harmony: **recip + pitch class of root + harmonic quality
!!!RDF**leadinstrument: original McGill primary instrumentation annotation
!!!RDF**phrase: newline = linebreak in original McGill transcription
!!!RDF**timestamp: McGill audio timestamp in seconds
!!!RDT: 2017/01/12/
!!!SampleActualRank: 83
!!!SampleID#: 0289
!!!SampleTargetRank: 84
!!!MBID: 5293bde3-2de6-4432-928d-0f053a3fbb1b
